X: 132
T: No_66_We_Smoke_Together.krn
N: Derived from No_66_We_Smoke_Together.krn
%%abc-version 2.0
%%abcx-abcm2ps-target-version 5.9.1 (29 Sep 2008)
%%abc-creator hum2abc beta
%%abcx-conversion-date 2019/03/15 08:37:56
%%humdrum-veritas 360843516
%%humdrum-veritas-data 3387717663
%%linebreak <none>
%%barnumbers 0
L: 1/8
M: 2/4
K: Ab clef=bass
[K:clef=bass][M:2/4]D/D3/ DC | 
(A,3/G,/) (G,F,) | 
A,/A,3/ G,F, | 
(G,/F,/)G,- (G,3/F,/) ]|:  
G,3/F,/ G,G, | 
F,F, G,F, | 
F,2F,F, ||  
[M:3/4]F,F,- F,F,-F,2 | 
[M:2/4]A,/A,3/ G,F, | 
F,2F, z :|]  



% FRACTION = 0.499817BUT SHOULD BE 0
% FRACTION = 0.499817BUT SHOULD BE 0
% FRACTION = 0.499817BUT SHOULD BE 0
